icons/icon-camera.svg

<svg viewBox="0 0 40 40" fill="none" xmlns="http://www.w3.org/2000/svg">
<g id="icon">
<path id="Vector 178" d="M32.5562 32.2222H6.33398C4.67713 32.2222 3.33398 30.8791 3.33398 29.2223V15.901C3.33398 14.2441 4.67713 12.901 6.33398 12.901H11.3969C12.0558 12.901 12.6724 12.5765 13.0454 12.0334L14.6094 9.75654C14.9824 9.21344 15.599 8.88892 16.2579 8.88892H22.7383C23.3972 8.88892 24.0138 9.21344 24.3868 9.75654L25.9507 12.0334C26.3238 12.5765 26.9404 12.901 27.5993 12.901H32.5562C34.2131 12.901 35.5562 14.2441 35.5562 15.901V29.2222C35.5562 30.8791 34.2131 32.2222 32.5562 32.2222Z" stroke="currentColor" stroke-opacity="0.3" stroke-width="2.5"/>
<circle id="Ellipse 103" cx="19.4453" cy="21.6667" r="5" stroke="currentColor" stroke-opacity="0.3" stroke-width="2"/>
</g>
</svg>

<svg xmlns="http://www.w3.org/2000/svg" fill="none" viewBox="0 0 40 40"><g stroke="currentColor" stroke-opacity=".3"><path stroke-width="2.5" d="M32.556 32.222H6.334a3 3 0 0 1-3-3V15.901a3 3 0 0 1 3-3h5.063a2 2 0 0 0 1.648-.868l1.564-2.276a2 2 0 0 1 1.649-.868h6.48a2 2 0 0 1 1.649.868l1.564 2.276a2 2 0 0 0 1.648.868h4.957a3 3 0 0 1 3 3v13.321a3 3 0 0 1-3 3Z"/><circle cx="19.445" cy="21.667" r="5" stroke-width="2"/></g></svg>
